X: 18760
T: If ANd WHeN I FiNd MYSeLf
R: reel
M: 4/4
K: Dminor
FA, (3A,A,A, FDED|FA, (3A,A,A, B,DGE|FA, (3A,A,A, FDED|B,DGD CE (3EEE:|
AF (3FFF Ac=BG|AF F2 DFEG|AF (3FFF Ac=BG|1 FAcA GA d2:|2 FAcA GAde||
fd (3ddd feae|fd (3ddd ecAe|fd (3ddd feae|gecA =Bc d2|
fd (3ddd feae|fd (3ddd ecAe|1 fedf edcA|dcAG FAGe:|2 fedf edcA|dcAG FDED||

